X:1
T:Just the Right Savior Is Jesus
T:Dan W. Milam
T:Just the Right Savior Is Jesus
T:Public Domain
T:Public Domain
C:Dan W. Milam
Z:Public Domain
%%score ( 1 2 ) ( 3 4 )
L:1/8
M:6/8
K:A
V:1 treble 
V:2 treble 
V:3 bass 
V:4 bass 
V:1
 [CE] | [Ec]>[Ec][Ec] [Ec][EB][EA] | [FA]>[EG][DF] [CE]2 E | [EB]>[EB][EB] [EB][Ec][Ed] | %4
w: 1.~A|Sav- ior once came from the|man- sions of light, He’s|the right Sav- ior for me;|
w: 2.~This|Sav- ior was lov- ing, so|gen- tle and kind, He’s|the right Sav- ior for me;|
w: 3.~Tho’|He was des- pised and re-|ject- ed of men, He’s|the right Sav- ior for me;|
w: 4.~Once|nailed to the cross, where He|suf- fered and died, He’s|the right Sav- ior for me;|
w: 5.~Tho’|bur- ied, He rose from the|gloom of the grave, He’s|the right Sav- ior for me;|
 [Ec]3- [Ec]2 [CE] | [Ec]>[Ec][Ec] [Ec][EB][EA] | [EG]>[EG][DF] [CE]2 [Fd] | %7
w: To * save|my poor soul from its dark-|ness and night, He’s just|
w: No * sin|in His life could His en-|e- mies find, He’s just|
w: He * car-|ried my sor- rows, my griefs|and my sin, He’s just|
w: The * blood|flow- ing down from His hands|and His side, He’s just|
w: He’s * reign-|ing in Heav- en, my soul|He can save, He’s just|
 [Ec]>[DB][CA] [DG][CA][DB] | [CA]3- [CA]2 ||"^Refrain" [=GA] | [FA]>[FA][FA] [FA][EG][DF] | %11
w: the right Sav- ior for me.||||
w: the right Sav- ior for me.||||
w: the right Sav- ior for me.|He’s *|just|the right Sav- ior for me,|
w: the right Sav- ior for me.||||
w: the right Sav- ior for me.||||
 (C2 C [CE]2) [EA] | [Ec]>[Ec][Fc] [Fc]<[Ec][Ee] | (E2 E [EB]2) [EB] | [Ec]>[Ec][Ec] [Ec][EB][EA] | %15
w: ||||
w: ||||
w: My * * King|* Re- deem- er is He;|Yes, * * just|right Sav- ior is Je- sus,|
w: ||||
w: ||||
 ([FA]2 [EG]) [DF]2 [Fd] | [Ec]>[DB][CA] [DG][CA][DB] | (C2 D [CA]2) |] %18
w: |||
w: |||
w: He’s * just the|right Sav- ior for me. *||
w: |||
w: |||
V:2
 x | x6 | x5 E | x6 | x6 | x6 | x6 | x6 | x5 || x | x6 | E3- x3 | x6 | B3- x3 | x6 | x6 | x6 | %17
w: ||just|||||||||||||||
w: ||just|||||||||||||||
w: ||just|||||||||and||the||||
w: ||just|||||||||||||||
w: ||just|||||||||||||||
 A3- x2 |] %18
w: |
w: |
w: |
w: |
w: |
V:3
 [A,,A,] | [A,,A,]>[A,,A,][A,,A,] [A,,A,][B,,G,][C,A,] | [D,A,]>[D,A,][D,A,] [A,,A,]2 [C,A,] | %3
 [E,G,]>[E,G,][E,G,] [E,G,][E,A,][E,B,] | [A,,A,]3- [A,,A,]2 [A,,A,] | %5
 [A,,A,]>[A,,A,][A,,A,] [A,,A,][B,,G,][C,A,] | [D,A,]>[D,A,][D,A,] [A,,A,]2 [D,A,] | %7
 [E,A,]>[E,G,][E,A,] [E,B,][E,A,][E,G,] | [A,,A,]3- [A,,A,]2 || [C,E] | %10
 [D,D]>[D,D][D,D] [D,D][D,A,][D,A,] | ([A,,A,]2 [A,,A,] [A,,A,]2) [A,C] | A,>A,A, A,<A,[C,A,] | %13
 ([E,G,]2 [E,G,] [E,G,]2) [E,G,] | [A,,A,]>[A,,A,][A,,A,] [A,,A,][B,,G,][C,A,] | %15
 [D,A,]2- [D,A,] [D,A,]2 [D,A,] | [E,A,]>[E,G,][E,A,] [E,B,][E,A,][E,G,] | (A,2 F, [A,,E,]2) |] %18
V:4
 x | x6 | x6 | x6 | x6 | x6 | x6 | x6 | x5 || x | x6 | x6 | A,>A,A, A,<A, x | x6 | x6 | x6 | x6 | %17
 A,,3- x2 |] %18

